packages/core/src/svgs/tokens/mono/FNSA.svg

<svg width="24" height="24" viewBox="0 0 24 24" fill="none" xmlns="http://www.w3.org/2000/svg">
<path d="M19.5 4.49998H12.1812C7.86872 4.49998 4.49998 7.78748 4.49998 12.0312V22H2V12.0312C2 6.48748 6.56248 2 12.1812 2H22V11.9687C22 17.5124 17.4375 22 11.8187 22H6.37499V11.5813C6.62392 10.1263 7.37874 8.80618 8.50625 7.85363C9.63381 6.90109 11.0615 6.37741 12.5375 6.37499H17V8.87497H12.8312C10.95 8.87497 9.61879 9.65627 9.08122 11.3749H17V13.8749H8.87497V19.5H11.8187C16.1312 19.5 19.5 16.2125 19.5 11.9687V4.49998Z" fill="white"/>
</svg>

<svg xmlns="http://www.w3.org/2000/svg" width="24" height="24" fill="none" viewBox="0 0 24 24">
    <path fill="#fff" d="M19.5 4.5h-7.319C7.87 4.5 4.5 7.787 4.5 12.031V22H2v-9.969C2 6.487 6.562 2 12.181 2H22v9.969C22 17.512 17.438 22 11.819 22H6.375V11.581a6.26 6.26 0 0 1 6.163-5.206H17v2.5h-4.169c-1.881 0-3.212.781-3.75 2.5H17v2.5H8.875V19.5h2.944c4.312 0 7.681-3.288 7.681-7.531z"/>
</svg>
